;FLAVOR:Marlin
;TIME:23642
;Filament used: 18.0297m
;Layer height: 0.28
;MINX:2.851
;MINY:14.578
;MINZ:0.28
;MAXX:189.204
;MAXY:200.899
;MAXZ:99.96
;Generated with Cura_SteamEngine 4.13.1
M140 S50
M105
M190 S50
M104 S200
M105
M109 S200
M82 ;absolute extrusion mode
; Ender 3 Custom Start G-code
G92 E0 ; Reset Extruder
G28 ; Home all axes
G1 Z2.0 F3000 ; Move Z Axis up little to prevent scratching of Heat Bed
G1 X0.1 Y20 Z0.3 F5000.0 ; Move to start position
G1 X0.1 Y200.0 Z0.3 F1500.0 E15 ; Draw the first line
G1 X0.4 Y200.0 Z0.3 F5000.0 ; Move to side a little
G1 X0.4 Y20 Z0.3 F1500.0 E30 ; Draw the second line
G92 E0 ; Reset Extruder
G1 Z2.0 F3000 ; Move Z Axis up little to prevent scratching of Heat Bed
G1 X5 Y20 Z0.3 F5000.0 ; Move over to prevent blob squish
G92 E0
G92 E0
G1 F2700 E-5
;LAYER_COUNT:357
;LAYER:0
M107
G0 F6000 X13.025 Y17.126 Z0.28
;TYPE:SKIRT
G1 F2700 E0
G1 F1200 X13.772 Y16.558 E0.0437
G1 X14.564 Y16.056 E0.08736
G1 X15.396 Y15.623 E0.13103
G1 X16.262 Y15.263 E0.1747
G1 X17.155 Y14.977 E0.21837
G1 X18.07 Y14.769 E0.26206
G1 X18.998 Y14.64 E0.30569
G1 X19.892 Y14.59 E0.34738
G1 X20.806 Y14.578 E0.38994
G1 X27.424 Y14.578 E0.6981
G1 X28.283 Y14.589 E0.73811
G1 X29.22 Y14.642 E0.78181
G1 X30.148 Y14.775 E0.82546
G1 X31.062 Y14.987 E0.86915
G1 X31.954 Y15.275 E0.9128
G1 X32.819 Y15.639 E0.9565
G1 X33.649 Y16.075 E1.00015
G1 X34.44 Y16.58 E1.04385
G1 X35.184 Y17.15 E1.08749
G1 X35.618 Y17.533 E1.11445
G1 X36.089 Y17.971 E1.14439
G1 X38.039 Y19.734 E1.2668
G1 X39.946 Y21.363 E1.38359
G1 X41.895 Y22.935 E1.50018
G1 X43.898 Y24.458 E1.61735
G1 X45.965 Y25.941 E1.73581
G1 X48.043 Y27.344 E1.85256
G1 X50.146 Y28.678 E1.96852
G1 X52.343 Y29.987 E2.08761
G1 X54.509 Y31.196 E2.20311
G1 X56.756 Y32.367 E2.3211
G1 X59.034 Y33.474 E2.43903
G1 X61.323 Y34.507 E2.55597
G1 X63.631 Y35.472 E2.67245
G1 X66.024 Y36.394 E2.79187
G1 X68.351 Y37.213 E2.90674
G1 X70.745 Y37.982 E3.02382
G1 X73.18 Y38.69 E3.1419
G1 X75.611 Y39.322 E3.25886
G1 X78.066 Y39.887 E3.37616
G1 X80.557 Y40.386 E3.49446
G1 X82.989 Y40.802 E3.60935
G1 X85.528 Y41.162 E3.72876
G1 X88.011 Y41.443 E3.84511
G1 X90.49 Y41.654 E3.96096
G1 X93.029 Y41.797 E4.07938
G1 X95.554 Y41.868 E4.197
G1 X98.079 Y41.868 E4.31457
G1 X100.574 Y41.796 E4.4308
G1 X103.094 Y41.654 E4.54833
G1 X103.403 Y41.628 E4.56277
G1 X104.69 Y41.537 E4.62284
G1 X105.306 Y41.511 E4.65155
G1 X106.152 Y41.5 E4.69095
G1 X121.075 Y41.501 E5.38583
G1 X121.773 Y41.511 E5.41833
G1 X122.393 Y41.538 E5.44723
G1 X123.248 Y41.599 E5.48714
G1 X124.617 Y41.715 E5.55112
G1 X127.123 Y41.855 E5.66799
G1 X129.654 Y41.926 E5.78589
G1 X132.178 Y41.924 E5.90342
G1 X134.667 Y41.853 E6.01936
G1 X137.169 Y41.71 E6.13606
G1 X138.45 Y41.6 E6.19593
G1 X139.34 Y41.537 E6.23747
G1 X139.947 Y41.511 E6.26576
G1 X140.793 Y41.5 E6.30516
G1 X155.73 Y41.501 E7.00069
G1 X156.435 Y41.512 E7.03352
G1 X157.371 Y41.567 E7.07718
G1 X158.299 Y41.701 E7.12084
G1 X159.213 Y41.914 E7.16454
G1 X160.105 Y42.204 E7.20821
G1 X160.969 Y42.568 E7.25187
G1 X161.798 Y43.005 E7.29551
G1 X162.273 Y43.298 E7.32149
G1 X162.747 Y43.609 E7.34789
G1 X164.238 Y44.616 E7.43167
G1 X166.379 Y45.976 E7.54978
G1 X168.542 Y47.265 E7.66702
G1 X170.744 Y48.495 E7.78447
G1 X172.989 Y49.667 E7.90239
G1 X174.618 Y50.46 E7.98676
G1 X175.081 Y50.693 E8.01089
G1 X175.382 Y50.851 E8.02672
G1 X175.699 Y51.023 E8.04352
G1 X175.955 Y51.166 E8.05717
G1 X178.474 Y52.621 E8.19263
G1 X179.213 Y53.061 E8.23267
G1 X179.998 Y53.575 E8.27637
G1 X180.735 Y54.154 E8.32001
G1 X181.421 Y54.794 E8.36369
G1 X182.049 Y55.49 E8.40735
G1 X182.616 Y56.237 E8.45101
G1 X182.96 Y56.763 E8.48028
G1 X183.148 Y57.07 E8.49704
G1 X183.293 Y57.315 E8.5103
G1 X187.468 Y64.548 E8.89918
G1 X187.801 Y65.145 E8.93101
G1 X188.222 Y65.982 E8.97464
G1 X188.571 Y66.853 E9.01833
G1 X188.844 Y67.75 E9.06199
G1 X189.04 Y68.667 E9.10565
G1 X189.157 Y69.598 E9.14934
G1 X189.189 Y70.187 E9.17681
G1 X189.199 Y70.535 E9.19302
G1 X189.204 Y70.851 E9.20774
G1 X189.203 Y73.949 E9.35199
G1 X189.193 Y74.655 E9.38487
G1 X189.167 Y75.273 E9.41367
G1 X189.099 Y76.237 E9.45867
G1 X188.958 Y78.728 E9.57485
G1 X188.887 Y81.278 E9.69363
G1 X188.887 Y83.803 E9.81121
G1 X188.957 Y86.241 E9.92478
G1 X189.099 Y88.478 E10.02915
G1 X189.177 Y89.875 E10.0943
G1 X189.19 Y90.184 E10.1087
G1 X189.2 Y90.546 E10.12557
G1 X189.204 Y90.85 E10.13972
G1 X189.203 Y93.949 E10.28403
G1 X189.193 Y94.656 E10.31695
G1 X189.167 Y95.275 E10.3458
G1 X189.099 Y96.238 E10.39075
G1 X188.958 Y98.728 E10.50688
G1 X188.887 Y101.278 E10.62567
G1 X188.887 Y103.803 E10.74324
G1 X188.957 Y106.241 E10.85681
G1 X189.099 Y108.478 E10.96119
G1 X189.177 Y109.875 E11.02634
G1 X189.19 Y110.184 E11.04074
G1 X189.2 Y110.546 E11.0576
G1 X189.204 Y110.85 E11.07176
G1 X189.203 Y113.949 E11.21606
G1 X189.193 Y114.656 E11.24898
G1 X189.167 Y115.275 E11.27783
G1 X189.099 Y116.238 E11.32279
G1 X188.958 Y118.728 E11.43892
G1 X188.887 Y121.278 E11.5577
G1 X188.887 Y123.803 E11.67528
G1 X188.957 Y126.241 E11.78885
G1 X189.099 Y128.478 E11.89322
G1 X189.177 Y129.875 E11.95837
G1 X189.19 Y130.184 E11.97277
G1 X189.2 Y130.546 E11.98964
G1 X189.204 Y130.85 E12.00379
G1 X189.203 Y133.949 E12.14809
G1 X189.193 Y134.656 E12.18102
G1 X189.167 Y135.275 E12.20987
G1 X189.099 Y136.238 E12.25482
G1 X188.958 Y138.728 E12.37095
G1 X188.887 Y141.278 E12.48974
G1 X188.887 Y143.803 E12.60731
G1 X188.957 Y146.241 E12.72088
G1 X189.099 Y148.478 E12.82525
G1 X189.177 Y149.875 E12.89041
G1 X189.19 Y150.184 E12.90481
G1 X189.2 Y150.546 E12.92167
G1 X189.204 Y150.85 E12.93583
G1 X189.203 Y153.949 E13.08013
G1 X189.193 Y154.656 E13.11305
G1 X189.167 Y155.275 E13.1419
G1 X189.099 Y156.238 E13.18685
G1 X188.958 Y158.728 E13.30299
G1 X188.887 Y161.278 E13.42177
G1 X188.887 Y163.803 E13.53934
G1 X188.957 Y166.241 E13.65291
G1 X189.099 Y168.478 E13.75729
G1 X189.177 Y169.875 E13.82244
G1 X189.19 Y170.184 E13.83684
G1 X189.2 Y170.546 E13.8537
G1 X189.204 Y170.85 E13.86786
G1 X189.203 Y173.965 E14.01291
G1 X189.192 Y174.669 E14.04569
G1 X189.137 Y175.605 E14.08935
G1 X189.003 Y176.533 E14.13301
G1 X188.79 Y177.447 E14.17671
G1 X188.5 Y178.339 E14.22039
G1 X188.136 Y179.203 E14.26404
G1 X187.903 Y179.665 E14.28814
G1 X187.746 Y179.96 E14.3037
G1 X187.562 Y180.292 E14.32137
G1 X183.382 Y187.529 E14.71053
G1 X183.021 Y188.133 E14.74329
G1 X182.506 Y188.917 E14.78697
G1 X181.926 Y189.654 E14.83064
G1 X181.285 Y190.339 E14.87433
G1 X180.589 Y190.967 E14.91798
G1 X179.841 Y191.533 E14.96166
G1 X179.048 Y192.034 E15.00533
G1 X178.215 Y192.465 E15.04901
G1 X177.349 Y192.824 E15.09266
G1 X176.455 Y193.107 E15.13632
G1 X175.54 Y193.314 E15.18
G1 X174.611 Y193.442 E15.22367
G1 X173.739 Y193.489 E15.26433
G1 X172.891 Y193.5 E15.30382
G1 X157.968 Y193.499 E15.9987
G1 X157.27 Y193.489 E16.03121
G1 X156.65 Y193.462 E16.0601
G1 X155.795 Y193.401 E16.10002
G1 X154.426 Y193.285 E16.16399
G1 X151.92 Y193.145 E16.28086
G1 X149.389 Y193.074 E16.39876
G1 X146.865 Y193.076 E16.51629
G1 X144.376 Y193.147 E16.63224
G1 X141.874 Y193.29 E16.74893
G1 X140.593 Y193.4 E16.8088
G1 X139.703 Y193.463 E16.85035
G1 X139.096 Y193.489 E16.87864
G1 X138.25 Y193.5 E16.91803
G1 X123.327 Y193.499 E17.61291
G1 X122.629 Y193.489 E17.64542
G1 X122.009 Y193.462 E17.67431
G1 X121.154 Y193.401 E17.71423
G1 X119.785 Y193.285 E17.7782
G1 X117.279 Y193.145 E17.89507
G1 X114.748 Y193.074 E18.01297
G1 X112.224 Y193.076 E18.1305
G1 X109.735 Y193.147 E18.24645
G1 X107.233 Y193.29 E18.36314
G1 X105.952 Y193.4 E18.42301
G1 X105.062 Y193.463 E18.46455
G1 X104.455 Y193.489 E18.49284
G1 X103.609 Y193.5 E18.53224
G1 X88.673 Y193.499 E19.22772
G1 X87.965 Y193.488 E19.2607
G1 X87.029 Y193.433 E19.30435
G1 X86.434 Y193.357 E19.33229
G1 X85.831 Y193.263 E19.3607
G1 X83.322 Y192.904 E19.47872
G1 X80.838 Y192.621 E19.59514
G1 X78.304 Y192.405 E19.71356
G1 X75.788 Y192.261 E19.8309
G1 X73.299 Y192.19 E19.94685
G1 X70.776 Y192.188 E20.06433
G1 X68.256 Y192.259 E20.18172
G1 X65.734 Y192.401 E20.29934
G1 X63.211 Y192.614 E20.41724
G1 X60.731 Y192.895 E20.53346
G1 X58.229 Y193.25 E20.65113
G1 X55.757 Y193.673 E20.76791
G1 X53.279 Y194.169 E20.88558
G1 X50.863 Y194.722 E21.00099
G1 X48.417 Y195.358 E21.11867
G1 X45.952 Y196.074 E21.2382
G1 X43.582 Y196.834 E21.35409
G1 X41.219 Y197.668 E21.47078
G1 X38.88 Y198.568 E21.58747
G1 X36.333 Y199.633 E21.71602
G1 X35.547 Y199.975 E21.75594
G1 X34.671 Y200.312 E21.79964
G1 X33.771 Y200.573 E21.84328
G1 X32.851 Y200.757 E21.88696
G1 X31.919 Y200.862 E21.93064
G1 X31.319 Y200.887 E21.9586
G1 X30.402 Y200.899 E22.0013
G1 X20.164 Y200.898 E22.47803
G1 X19.463 Y200.888 E22.51067
G1 X18.527 Y200.835 E22.55432
G1 X17.598 Y200.702 E22.59802
G1 X16.685 Y200.49 E22.64167
G1 X15.792 Y200.202 E22.68536
G1 X14.928 Y199.838 E22.72901
G1 X14.097 Y199.402 E22.77271
G1 X13.307 Y198.897 E22.81637
G1 X12.563 Y198.327 E22.86001
G1 X11.87 Y197.695 E22.90369
G1 X11.233 Y197.006 E22.94738
G1 X10.657 Y196.266 E22.99105
G1 X10.172 Y195.523 E23.03236
G1 X9.71 Y194.745 E23.07449
G1 X4.567 Y185.835 E23.55354
G1 X4.245 Y185.258 E23.5843
G1 X3.824 Y184.421 E23.62793
G1 X3.475 Y183.55 E23.67162
G1 X3.202 Y182.653 E23.71528
G1 X3.006 Y181.736 E23.75895
G1 X2.888 Y180.805 E23.80264
G1 X2.851 Y179.868 E23.84631
G1 X2.894 Y178.931 E23.88999
G1 X3.016 Y178.001 E23.93366
G1 X3.286 Y176.836 E23.98935
G1 X3.658 Y175.552 E24.05159
G1 X4.338 Y173.079 E24.17102
G1 X4.947 Y170.593 E24.2902
G1 X5.469 Y168.152 E24.40644
G1 X5.924 Y165.698 E24.52265
G1 X6.317 Y163.188 E24.64095
G1 X6.632 Y160.71 E24.75727
G1 X6.882 Y158.185 E24.87542
G1 X7.058 Y155.672 E24.99272
G1 X7.163 Y153.175 E25.10909
G1 X7.197 Y150.643 E25.227
G1 X7.159 Y148.125 E25.34426
G1 X7.05 Y145.56 E25.46381
G1 X6.993 Y144.574 E25.5098
G1 X6.979 Y143.636 E25.55348
G1 X7.015 Y143.01 E25.58268
G1 X7.087 Y142.161 E25.62235
G1 X7.269 Y139.594 E25.74218
G1 X7.375 Y137.084 E25.85916
G1 X7.411 Y134.553 E25.97703
G1 X7.375 Y132.03 E26.09452
G1 X7.269 Y129.52 E26.2115
G1 X7.089 Y127.005 E26.32891
G1 X6.844 Y124.53 E26.44472
G1 X6.518 Y121.99 E26.56396
G1 X6.135 Y119.549 E26.67902
G1 X5.906 Y118.319 E26.73728
G1 X5.749 Y117.394 E26.78096
G1 X5.632 Y116.464 E26.82461
G1 X5.595 Y115.526 E26.86832
G1 X5.613 Y114.933 E26.89595
G1 X5.67 Y113.963 E26.94119
G1 X5.729 Y113.135 E26.97985
G1 X5.837 Y110.601 E27.09795
G1 X5.875 Y108.07 E27.21581
G1 X5.841 Y105.555 E27.33293
G1 X5.736 Y103.056 E27.4494
G1 X5.56 Y100.546 E27.56656
G1 X5.309 Y98.008 E27.68532
G1 X4.993 Y95.534 E27.80145
G1 X4.608 Y93.065 E27.91781
G1 X4.29 Y91.352 E27.99894
G1 X4.186 Y90.745 E28.02761
G1 X4.067 Y89.814 E28.07132
G1 X4.028 Y88.877 E28.11499
G1 X4.069 Y87.94 E28.15866
G1 X4.189 Y87.01 E28.20232
G1 X4.307 Y86.423 E28.2302
G1 X4.546 Y85.383 E28.27989
G1 X4.697 Y84.766 E28.30947
G1 X5.234 Y82.274 E28.42817
G1 X5.695 Y79.795 E28.54558
G1 X6.074 Y77.359 E28.66038
G1 X6.4 Y74.803 E28.78036
G1 X6.644 Y72.346 E28.89533
G1 X6.823 Y69.799 E29.01422
G1 X6.928 Y67.312 E29.13013
G1 X6.963 Y64.779 E29.24809
G1 X6.926 Y62.264 E29.36521
G1 X6.818 Y59.731 E29.48327
G1 X6.642 Y57.256 E29.5988
G1 X6.536 Y56.178 E29.64924
G1 X6.463 Y55.325 E29.68911
G1 X6.427 Y54.073 E29.74743
G1 X6.458 Y52.987 E29.79802
G1 X6.483 Y52.39 E29.82584
G1 X6.519 Y49.849 E29.94417
G1 X6.483 Y47.325 E30.06171
G1 X6.376 Y44.805 E30.17916
G1 X6.2 Y42.325 E30.29493
G1 X5.948 Y39.795 E30.41332
G1 X5.632 Y37.32 E30.5295
G1 X5.209 Y34.627 E30.65644
G1 X5.175 Y34.43 E30.66574
G1 X5.056 Y33.499 E30.70945
G1 X5.018 Y32.562 E30.75312
G1 X5.06 Y31.625 E30.79679
G1 X5.181 Y30.695 E30.84046
G1 X5.381 Y29.779 E30.88412
G1 X5.658 Y28.883 E30.92779
G1 X6.01 Y28.014 E30.97144
G1 X6.413 Y27.218 E31.01299
G1 X6.856 Y26.428 E31.05516
G1 X10.267 Y20.522 E31.37274
G1 X10.599 Y19.964 E31.40298
G1 X11.112 Y19.18 E31.4466
G1 X11.691 Y18.441 E31.49032
G1 X12.33 Y17.755 E31.53397
G1 X13.025 Y17.126 E31.57762
G0 F6000 X13.333 Y17.391
G1 F1200 X14.07 Y16.838 E31.62053
G1 X14.852 Y16.352 E31.6634
G1 X15.673 Y15.936 E31.70625
G1 X16.527 Y15.592 E31.74913
G1 X17.408 Y15.324 E31.792
G1 X18.308 Y15.133 E31.83485
G1 X19.222 Y15.022 E31.87772
G1 X19.897 Y14.99 E31.90918
G1 X20.806 Y14.978 E31.95151
G1 X27.424 Y14.978 E32.25968
G1 X28.278 Y14.989 E32.29945
G1 X29.197 Y15.042 E32.34231
G1 X30.108 Y15.175 E32.38518
G1 X31.004 Y15.386 E32.42804
G1 X31.878 Y15.674 E32.47089
G1 X32.725 Y16.037 E32.5138
G1 X33.536 Y16.472 E32.55665
G1 X34.307 Y16.976 E32.59954
G1 X35.345 Y17.825 E32.66199
G1 X35.87 Y18.313 E32.69536
G1 X37.739 Y20.004 E32.81273
G1 X39.699 Y21.676 E32.93269
G1 X41.669 Y23.266 E33.05057
G1 X43.662 Y24.782 E33.16717
G1 X45.737 Y26.27 E33.28606
G1 X47.786 Y27.654 E33.4012
G1 X49.974 Y29.042 E33.52185
G1 X52.123 Y30.322 E33.63833
G1 X54.336 Y31.557 E33.75633
G1 X56.575 Y32.724 E33.8739
G1 X58.86 Y33.835 E33.99221
G1 X61.166 Y34.875 E34.11
G1 X63.469 Y35.838 E34.22624
G1 X65.873 Y36.765 E34.34621
G1 X68.212 Y37.588 E34.46167
G1 X70.659 Y38.373 E34.58133
G1 X73.064 Y39.072 E34.69795
G1 X75.534 Y39.715 E34.8168
G1 X77.969 Y40.275 E34.93314
G1 X80.477 Y40.778 E35.05225
G1 X82.938 Y41.198 E35.1685
G1 X85.463 Y41.557 E35.28726
G1 X87.965 Y41.84 E35.40451
G1 X90.504 Y42.057 E35.52317
G1 X92.996 Y42.197 E35.63939
G1 X95.543 Y42.268 E35.75803
G1 X98.055 Y42.268 E35.875
G1 X100.607 Y42.195 E35.99388
G1 X103.113 Y42.053 E36.11076
G1 X103.431 Y42.027 E36.12562
G1 X104.718 Y41.936 E36.18569
G1 X105.311 Y41.911 E36.21333
G1 X106.152 Y41.9 E36.25249
G1 X121.069 Y41.901 E36.94709
G1 X121.767 Y41.911 E36.9796
G1 X122.365 Y41.937 E37.00747
G1 X123.215 Y41.998 E37.04715
G1 X124.597 Y42.115 E37.11173
G1 X127.09 Y42.255 E37.228
G1 X129.643 Y42.326 E37.34692
G1 X132.154 Y42.324 E37.46385
G1 X134.702 Y42.251 E37.58254
G1 X137.224 Y42.107 E37.70017
G1 X138.653 Y41.986 E37.76695
G1 X139.368 Y41.936 E37.80032
G1 X139.952 Y41.911 E37.82754
G1 X140.793 Y41.9 E37.8667
G1 X155.723 Y41.901 E38.56191
G1 X156.428 Y41.912 E38.59474
G1 X157.347 Y41.967 E38.63761
G1 X158.258 Y42.1 E38.68048
G1 X159.154 Y42.313 E38.72336
G1 X160.028 Y42.602 E38.76622
G1 X160.874 Y42.966 E38.80911
G1 X162.054 Y43.633 E38.87223
G1 X162.523 Y43.941 E38.89835
G1 X164.021 Y44.953 E38.98253
G1 X166.165 Y46.315 E39.10081
G1 X168.363 Y47.624 E39.21993
G1 X170.528 Y48.834 E39.33542
G1 X172.808 Y50.024 E39.45517
G1 X174.438 Y50.817 E39.53958
G1 X174.901 Y51.05 E39.56371
G1 X175.191 Y51.202 E39.57896
G1 X175.508 Y51.374 E39.59575
G1 X175.755 Y51.512 E39.60893
G1 X178.401 Y53.042 E39.75125
G1 X179.008 Y53.404 E39.78416
G1 X179.778 Y53.91 E39.82706
G1 X180.501 Y54.48 E39.86993
G1 X181.171 Y55.111 E39.91279
G1 X181.784 Y55.797 E39.95563
G1 X182.336 Y56.535 E39.99854
G1 X182.619 Y56.972 E40.02279
G1 X182.807 Y57.279 E40.03955
G1 X182.947 Y57.515 E40.05232
G1 X187.118 Y64.742 E40.44087
G1 X187.451 Y65.339 E40.4727
G1 X187.864 Y66.162 E40.51558
G1 X188.205 Y67.018 E40.55848
G1 X188.469 Y67.899 E40.60131
G1 X188.656 Y68.801 E40.6442
G1 X188.765 Y69.715 E40.68706
G1 X188.79 Y70.199 E40.70963
G1 X188.8 Y70.547 E40.72584
G1 X188.804 Y70.851 E40.74
G1 X188.803 Y73.943 E40.88397
G1 X188.793 Y74.649 E40.91685
G1 X188.768 Y75.245 E40.94463
G1 X188.704 Y76.157 E40.9872
G1 X188.558 Y78.73 E41.1072
G1 X188.487 Y81.267 E41.22538
G1 X188.487 Y83.78 E41.3424
G1 X188.559 Y86.305 E41.46002
G1 X188.7 Y88.5 E41.56244
G1 X188.778 Y89.897 E41.62759
G1 X188.79 Y90.195 E41.64148
G1 X188.8 Y90.557 E41.65834
G1 X188.804 Y90.85 E41.67198
G1 X188.803 Y93.943 E41.81601
G1 X188.793 Y94.65 E41.84893
G1 X188.768 Y95.247 E41.87675
G1 X188.703 Y96.162 E41.91947
G1 X188.558 Y98.73 E42.03924
G1 X188.487 Y101.267 E42.15742
G1 X188.487 Y103.78 E42.27443
G1 X188.559 Y106.305 E42.39205
G1 X188.7 Y108.5 E42.49447
G1 X188.778 Y109.897 E42.55962
G1 X188.79 Y110.195 E42.57351
G1 X188.8 Y110.557 E42.59037
G1 X188.804 Y110.85 E42.60402
G1 X188.803 Y113.943 E42.74804
G1 X188.793 Y114.65 E42.78097
G1 X188.768 Y115.247 E42.80879
G1 X188.703 Y116.162 E42.8515
G1 X188.558 Y118.73 E42.97127
G1 X188.487 Y121.267 E43.08945
G1 X188.487 Y123.78 E43.20647
G1 X188.559 Y126.305 E43.32409
G1 X188.7 Y128.5 E43.42651
G1 X188.778 Y129.897 E43.49166
G1 X188.79 Y130.195 E43.50555
G1 X188.8 Y130.557 E43.52241
