;FLAVOR:Marlin
;TIME:20900
;Filament used: 21.7254m
;Layer height: 0.28
;MINX:16.5
;MINY:46.5
;MINZ:0.28
;MAXX:218.5
;MAXY:188.5
;MAXZ:3.92
;Generated with Cura_SteamEngine 4.13.1
M140 S50
M105
M190 S50
M104 S200
M105
M109 S200
M82 ;absolute extrusion mode
; Ender 3 Custom Start G-code
G92 E0 ; Reset Extruder
G28 ; Home all axes
G1 Z2.0 F3000 ; Move Z Axis up little to prevent scratching of Heat Bed
G1 X0.1 Y20 Z0.3 F5000.0 ; Move to start position
G1 X0.1 Y200.0 Z0.3 F1500.0 E15 ; Draw the first line
G1 X0.4 Y200.0 Z0.3 F5000.0 ; Move to side a little
G1 X0.4 Y20 Z0.3 F1500.0 E30 ; Draw the second line
G92 E0 ; Reset Extruder
G1 Z2.0 F3000 ; Move Z Axis up little to prevent scratching of Heat Bed
G1 X5 Y20 Z0.3 F5000.0 ; Move over to prevent blob squish
G92 E0
G92 E0
G1 F2700 E-5
;LAYER_COUNT:14
;LAYER:0
M107
G0 F6000 X26.019 Y48.246 Z0.28
;TYPE:SKIRT
G1 F2700 E0
G1 F1200 X27.139 Y47.766 E0.05674
G1 X27.767 Y47.537 E0.08787
G1 X28.066 Y47.432 E0.10262
G1 X28.704 Y47.22 E0.13393
G1 X29.606 Y46.963 E0.1776
G1 X30.779 Y46.748 E0.23313
G1 X31.413 Y46.667 E0.26289
G1 X31.753 Y46.629 E0.27882
G1 X32.47 Y46.56 E0.31236
G1 X33.38 Y46.51 E0.3548
G1 X34.212 Y46.5 E0.39354
G1 X200.793 Y46.5 E8.15025
G1 X201.649 Y46.511 E8.19011
G1 X202.542 Y46.56 E8.23176
G1 X203.209 Y46.624 E8.26296
G1 X203.554 Y46.663 E8.27913
G1 X204.234 Y46.75 E8.31105
G1 X205.158 Y46.909 E8.35471
G1 X206.327 Y47.229 E8.41114
G1 X206.928 Y47.43 E8.44065
G1 X207.212 Y47.529 E8.45466
G1 X207.872 Y47.77 E8.48737
G1 X208.738 Y48.129 E8.53103
G1 X209.818 Y48.707 E8.58806
G1 X210.37 Y49.043 E8.61815
G1 X210.627 Y49.204 E8.63228
G1 X211.208 Y49.58 E8.6645
G1 X211.973 Y50.123 E8.70818
G1 X212.551 Y50.603 E8.74317
G1 X212.965 Y50.987 E8.76946
G1 X213.397 Y51.409 E8.79758
G1 X213.586 Y51.599 E8.81006
G1 X214.055 Y52.08 E8.84134
G1 X214.68 Y52.778 E8.88497
G1 X215.401 Y53.764 E8.94185
G1 X215.754 Y54.307 E8.97201
G1 X215.927 Y54.581 E8.98709
G1 X216.293 Y55.182 E9.01986
G1 X216.746 Y56.003 E9.06352
G1 X217.226 Y57.116 E9.11996
G1 X217.457 Y57.746 E9.15121
G1 X217.566 Y58.059 E9.16664
G1 X217.776 Y58.69 E9.19761
G1 X218.034 Y59.592 E9.24129
G1 X218.181 Y60.308 E9.27533
G1 X218.26 Y60.828 E9.29982
G1 X218.336 Y61.431 E9.32812
G1 X218.369 Y61.73 E9.34213
G1 X218.437 Y62.421 E9.37446
G1 X218.489 Y63.344 E9.41751
G1 X218.5 Y64.212 E9.45793
G1 X218.499 Y170.951 E14.42814
G1 X218.489 Y171.645 E14.46046
G1 X218.468 Y172.184 E14.48558
G1 X218.434 Y172.617 E14.5058
G1 X218.373 Y173.236 E14.53476
G1 X218.338 Y173.549 E14.54943
G1 X218.251 Y174.231 E14.58144
G1 X218.092 Y175.155 E14.6251
G1 X217.769 Y176.333 E14.68198
G1 X217.568 Y176.933 E14.71144
G1 X217.472 Y177.208 E14.72501
G1 X217.232 Y177.866 E14.75762
G1 X216.873 Y178.733 E14.80132
G1 X216.296 Y179.814 E14.85837
G1 X215.959 Y180.368 E14.88857
G1 X215.798 Y180.624 E14.90265
G1 X215.421 Y181.207 E14.93498
G1 X214.879 Y181.972 E14.97863
G1 X214.323 Y182.633 E15.01885
G1 X214.013 Y182.964 E15.03997
G1 X213.592 Y183.395 E15.06802
G1 X213.371 Y183.615 E15.08255
G1 X212.881 Y184.089 E15.11429
G1 X212.18 Y184.712 E15.15796
G1 X211.656 Y185.113 E15.18868
G1 X211.196 Y185.429 E15.21467
G1 X210.691 Y185.757 E15.24271
G1 X210.39 Y185.946 E15.25926
G1 X209.773 Y186.319 E15.29283
G1 X208.95 Y186.769 E15.33651
G1 X207.841 Y187.243 E15.39267
G1 X207.225 Y187.467 E15.42319
G1 X206.93 Y187.569 E15.43772
G1 X206.291 Y187.781 E15.46907
G1 X205.389 Y188.039 E15.51276
G1 X204.221 Y188.252 E15.56804
G1 X203.587 Y188.333 E15.5978
G1 X203.247 Y188.371 E15.61373
G1 X202.53 Y188.44 E15.64727
G1 X201.62 Y188.49 E15.68971
G1 X200.788 Y188.5 E15.72846
G1 X34.049 Y188.499 E23.49252
G1 X33.351 Y188.489 E23.52503
G1 X32.761 Y188.465 E23.55252
G1 X32.383 Y188.434 E23.57018
G1 X31.764 Y188.373 E23.59915
G1 X31.451 Y188.338 E23.61381
G1 X30.769 Y188.251 E23.64583
G1 X29.845 Y188.092 E23.68948
G1 X28.667 Y187.769 E23.74636
G1 X28.067 Y187.568 E23.77583
G1 X27.788 Y187.471 E23.78958
G1 X27.128 Y187.23 E23.8223
G1 X26.262 Y186.871 E23.86595
G1 X25.174 Y186.289 E23.9234
G1 X24.623 Y185.953 E23.95345
G1 X24.357 Y185.785 E23.9681
G1 X23.766 Y185.401 E24.00092
G1 X23.002 Y184.857 E24.04459
G1 X22.437 Y184.386 E24.07885
G1 X22.035 Y184.013 E24.10438
G1 X21.603 Y183.591 E24.1325
G1 X21.391 Y183.378 E24.1465
G1 X20.918 Y182.89 E24.17814
G1 X20.295 Y182.189 E24.22181
G1 X19.824 Y181.569 E24.25807
G1 X19.565 Y181.186 E24.27959
G1 X19.237 Y180.68 E24.30767
G1 X19.066 Y180.409 E24.32259
G1 X18.699 Y179.805 E24.3555
G1 X18.247 Y178.983 E24.39918
G1 X17.768 Y177.867 E24.45573
G1 X17.539 Y177.24 E24.48682
G1 X17.432 Y176.935 E24.50187
G1 X17.219 Y176.294 E24.53332
G1 X16.962 Y175.392 E24.57699
G1 X16.745 Y174.202 E24.63332
G1 X16.665 Y173.568 E24.66307
G1 X16.63 Y173.259 E24.67755
G1 X16.562 Y172.562 E24.71016
G1 X16.511 Y171.65 E24.7527
G1 X16.5 Y170.788 E24.79284
G1 X16.501 Y64.05 E29.76301
G1 X16.511 Y63.349 E29.79565
G1 X16.536 Y62.744 E29.82385
G1 X16.566 Y62.378 E29.84095
G1 X16.627 Y61.761 E29.86982
G1 X16.664 Y61.441 E29.88482
G1 X16.752 Y60.756 E29.91697
G1 X16.911 Y59.832 E29.96063
G1 X17.232 Y58.664 E30.01704
G1 X17.432 Y58.067 E30.04635
G1 X17.533 Y57.779 E30.06056
G1 X17.775 Y57.118 E30.09334
G1 X18.134 Y56.252 E30.13699
G1 X18.709 Y55.178 E30.19372
G1 X19.044 Y54.628 E30.22371
G1 X19.205 Y54.373 E30.23775
G1 X19.583 Y53.789 E30.27014
G1 X20.125 Y53.024 E30.3138
G1 X20.669 Y52.376 E30.35319
G1 X20.978 Y52.046 E30.37425
G1 X21.399 Y51.614 E30.40233
G1 X21.629 Y51.385 E30.41745
G1 X22.119 Y50.911 E30.44919
G1 X22.82 Y50.288 E30.49286
G1 X23.344 Y49.887 E30.52359
G1 X23.804 Y49.571 E30.54957
G1 X24.309 Y49.243 E30.57761
G1 X24.591 Y49.066 E30.59311
G1 X25.197 Y48.698 E30.62613
G1 X26.019 Y48.246 E30.66981
G0 F6000 X26.212 Y48.596
G1 F1200 X27.276 Y48.141 E30.72369
G1 X27.904 Y47.912 E30.75482
G1 X28.192 Y47.812 E30.76901
G1 X28.83 Y47.6 E30.80032
G1 X29.716 Y47.348 E30.84321
G1 X30.83 Y47.144 E30.89595
G1 X31.464 Y47.063 E30.92571
G1 X31.792 Y47.027 E30.94107
G1 X32.509 Y46.958 E30.97461
G1 X33.385 Y46.91 E31.01547
G1 X34.212 Y46.9 E31.05398
G1 X200.793 Y46.9 E38.81069
G1 X201.643 Y46.911 E38.85027
G1 X202.503 Y46.958 E38.89037
G1 X203.17 Y47.022 E38.92158
G1 X203.503 Y47.06 E38.93718
G1 X204.183 Y47.147 E38.9691
G1 X205.09 Y47.303 E39.01196
G1 X206.2 Y47.608 E39.06556
G1 X206.801 Y47.809 E39.09507
G1 X207.075 Y47.905 E39.10859
G1 X207.735 Y48.146 E39.1413
G1 X208.585 Y48.499 E39.18416
G1 X209.61 Y49.048 E39.2383
G1 X210.162 Y49.384 E39.26839
G1 X210.41 Y49.54 E39.28204
G1 X210.991 Y49.916 E39.31426
G1 X211.742 Y50.449 E39.35714
G1 X212.285 Y50.902 E39.39007
G1 X212.685 Y51.273 E39.41548
G1 X213.117 Y51.695 E39.4436
G1 X213.299 Y51.878 E39.45561
G1 X213.768 Y52.359 E39.4869
G1 X214.382 Y53.045 E39.52977
G1 X215.066 Y53.982 E39.58378
G1 X215.419 Y54.525 E39.61394
G1 X215.585 Y54.789 E39.62846
G1 X215.951 Y55.39 E39.66123
G1 X216.396 Y56.196 E39.7041
G1 X216.85 Y57.254 E39.75771
G1 X217.081 Y57.884 E39.78895
G1 X217.187 Y58.186 E39.80386
G1 X217.397 Y58.817 E39.83482
G1 X217.649 Y59.702 E39.87767
G1 X217.787 Y60.377 E39.90975
G1 X217.863 Y60.878 E39.93335
G1 X217.939 Y61.481 E39.96165
G1 X217.971 Y61.769 E39.97514
G1 X218.039 Y62.46 E40.00747
G1 X218.089 Y63.35 E40.04898
G1 X218.1 Y64.212 E40.08912
G1 X218.099 Y170.946 E45.0591
G1 X218.089 Y171.64 E45.09142
G1 X218.069 Y172.16 E45.11565
G1 X218.036 Y172.578 E45.13518
G1 X217.975 Y173.197 E45.16414
G1 X217.941 Y173.498 E45.17825
G1 X217.854 Y174.18 E45.21026
G1 X217.698 Y175.088 E45.25316
G1 X217.39 Y176.206 E45.30716
G1 X217.189 Y176.806 E45.33662
G1 X217.096 Y177.071 E45.3497
G1 X216.856 Y177.729 E45.38231
G1 X216.504 Y178.58 E45.4252
G1 X215.954 Y179.606 E45.4794
G1 X215.617 Y180.16 E45.5096
G1 X215.462 Y180.407 E45.52318
G1 X215.085 Y180.99 E45.5555
G1 X214.552 Y181.741 E45.59839
G1 X214.027 Y182.364 E45.63632
G1 X213.727 Y182.685 E45.65678
G1 X213.306 Y183.116 E45.68484
G1 X213.093 Y183.328 E45.69883
G1 X212.603 Y183.802 E45.73057
G1 X211.914 Y184.412 E45.77342
G1 X211.421 Y184.789 E45.80232
G1 X210.978 Y185.094 E45.82737
G1 X210.473 Y185.422 E45.85541
G1 X210.183 Y185.603 E45.87132
G1 X209.566 Y185.976 E45.9049
G1 X208.758 Y186.418 E45.94778
G1 X207.704 Y186.867 E46.00113
G1 X207.088 Y187.091 E46.03165
G1 X206.804 Y187.19 E46.04565
G1 X206.165 Y187.402 E46.077
G1 X205.279 Y187.653 E46.11988
G1 X204.17 Y187.856 E46.17238
G1 X203.536 Y187.937 E46.20214
G1 X203.208 Y187.973 E46.21751
G1 X202.491 Y188.042 E46.25105
G1 X201.615 Y188.09 E46.2919
G1 X200.788 Y188.1 E46.33041
G1 X34.055 Y188.099 E54.0942
G1 X33.357 Y188.089 E54.1267
G1 X32.787 Y188.065 E54.15327
G1 X32.422 Y188.036 E54.17032
G1 X31.803 Y187.975 E54.19928
G1 X31.502 Y187.941 E54.21338
G1 X30.82 Y187.854 E54.2454
G1 X29.912 Y187.698 E54.2883
G1 X28.794 Y187.39 E54.3423
G1 X28.194 Y187.189 E54.37176
G1 X27.925 Y187.095 E54.38503
G1 X27.265 Y186.854 E54.41775
G1 X26.415 Y186.501 E54.4606
G1 X25.382 Y185.947 E54.51519
G1 X24.831 Y185.611 E54.54524
G1 X24.575 Y185.45 E54.55932
G1 X23.984 Y185.066 E54.59214
G1 X23.234 Y184.531 E54.63503
G1 X22.703 Y184.088 E54.66723
G1 X22.315 Y183.727 E54.69191
G1 X21.883 Y183.305 E54.72003
G1 X21.679 Y183.099 E54.73353
G1 X21.206 Y182.611 E54.76518
G1 X20.594 Y181.923 E54.80805
G1 X20.151 Y181.338 E54.84222
G1 X19.9 Y180.969 E54.863
G1 X19.572 Y180.463 E54.89108
G1 X19.408 Y180.201 E54.90548
G1 X19.041 Y179.597 E54.93839
G1 X18.598 Y178.79 E54.98125
G1 X18.143 Y177.729 E55.03501
G1 X17.914 Y177.102 E55.06609
G1 X17.812 Y176.809 E55.08054
G1 X17.599 Y176.168 E55.11199
G1 X17.347 Y175.282 E55.15488
G1 X17.141 Y174.152 E55.20837
G1 X17.061 Y173.518 E55.23812
G1 X17.028 Y173.22 E55.25208
G1 X16.96 Y172.523 E55.28469
G1 X16.911 Y171.644 E55.32569
G1 X16.9 Y170.788 E55.36555
G1 X16.901 Y64.056 E60.33544
G1 X16.911 Y63.355 E60.36808
G1 X16.935 Y62.77 E60.39534
G1 X16.964 Y62.417 E60.41184
G1 X17.025 Y61.8 E60.44071
G1 X17.06 Y61.492 E60.45514
G1 X17.148 Y60.807 E60.4873
G1 X17.305 Y59.9 E60.53016
G1 X17.611 Y58.791 E60.58373
G1 X17.811 Y58.194 E60.61305
G1 X17.908 Y57.917 E60.62671
G1 X18.15 Y57.256 E60.65949
G1 X18.504 Y56.406 E60.70237
G1 X19.051 Y55.386 E60.75626
G1 X19.386 Y54.836 E60.78625
G1 X19.54 Y54.59 E60.79976
G1 X19.918 Y54.006 E60.83215
G1 X20.452 Y53.256 E60.87503
G1 X20.965 Y52.645 E60.91217
G1 X21.265 Y52.325 E60.9326
G1 X21.686 Y51.893 E60.96069
G1 X21.907 Y51.672 E60.97524
G1 X22.397 Y51.198 E61.00699
G1 X23.086 Y50.588 E61.04983
G1 X23.579 Y50.211 E61.07873
G1 X24.022 Y49.906 E61.10378
G1 X24.527 Y49.578 E61.13182
G1 X24.799 Y49.408 E61.14675
G1 X25.405 Y49.04 E61.17977
G1 X26.212 Y48.596 E61.22266
G0 F6000 X26.405 Y48.947
G1 F1200 X27.413 Y48.517 E61.27368
G1 X28.041 Y48.288 E61.30481
G1 X28.319 Y48.191 E61.31852
G1 X28.957 Y47.979 E61.34983
G1 X29.825 Y47.733 E61.39184
G1 X30.88 Y47.541 E61.44177
G1 X31.514 Y47.46 E61.47153
G1 X31.83 Y47.425 E61.48633
G1 X32.547 Y47.356 E61.51987
G1 X33.391 Y47.31 E61.55923
G1 X34.212 Y47.3 E61.59746
G1 X200.793 Y47.3 E69.35417
G1 X201.637 Y47.311 E69.39348
G1 X202.465 Y47.357 E69.43209
G1 X203.132 Y47.421 E69.46329
G1 X203.452 Y47.456 E69.47828
G1 X204.132 Y47.543 E69.5102
G1 X205.022 Y47.698 E69.55227
G1 X206.073 Y47.988 E69.60304
G1 X206.674 Y48.189 E69.63255
G1 X206.938 Y48.281 E69.64556
G1 X207.598 Y48.522 E69.67828
G1 X208.431 Y48.869 E69.7203
G1 X209.402 Y49.39 E69.77161
G1 X209.954 Y49.726 E69.8017
G1 X210.193 Y49.876 E69.81484
G1 X210.774 Y50.252 E69.84707
G1 X211.509 Y50.776 E69.8891
G1 X212.019 Y51.201 E69.92001
G1 X212.406 Y51.56 E69.94459
G1 X212.838 Y51.982 E69.97271
G1 X213.013 Y52.157 E69.98424
G1 X213.482 Y52.638 E70.01552
G1 X214.083 Y53.312 E70.05757
G1 X214.731 Y54.2 E70.10875
G1 X215.084 Y54.743 E70.13891
G1 X215.244 Y54.997 E70.15289
G1 X215.61 Y55.598 E70.18566
G1 X216.045 Y56.389 E70.22769
G1 X216.475 Y57.392 E70.27851
G1 X216.706 Y58.022 E70.30975
G1 X216.807 Y58.312 E70.32405
G1 X217.017 Y58.943 E70.35502
G1 X217.264 Y59.812 E70.39708
G1 X217.393 Y60.446 E70.42721
G1 X217.466 Y60.929 E70.44996
G1 X217.542 Y61.532 E70.47826
G1 X217.573 Y61.808 E70.49119
G1 X217.641 Y62.499 E70.52352
G1 X217.689 Y63.355 E70.56344
G1 X217.7 Y64.212 E70.60335
G1 X217.699 Y170.94 E75.57305
G1 X217.689 Y171.634 E75.60537
G1 X217.669 Y172.137 E75.62881
G1 X217.638 Y172.538 E75.64754
G1 X217.577 Y173.157 E75.6765
G1 X217.544 Y173.448 E75.69014
G1 X217.457 Y174.13 E75.72215
G1 X217.303 Y175.02 E75.76421
G1 X217.011 Y176.079 E75.81536
G1 X216.81 Y176.679 E75.84483
G1 X216.72 Y176.934 E75.85742
G1 X216.48 Y177.592 E75.89003
G1 X216.134 Y178.426 E75.93208
G1 X215.612 Y179.398 E75.98345
G1 X215.275 Y179.952 E76.01365
G1 X215.126 Y180.19 E76.02672
G1 X214.749 Y180.773 E76.05905
G1 X214.226 Y181.509 E76.10109
G1 X213.731 Y182.095 E76.13681
G1 X213.441 Y182.405 E76.15658
G1 X213.02 Y182.836 E76.18463
G1 X212.815 Y183.04 E76.1981
G1 X212.325 Y183.514 E76.22984
G1 X211.649 Y184.113 E76.2719
G1 X211.186 Y184.465 E76.29898
G1 X210.76 Y184.758 E76.32306
G1 X210.255 Y185.086 E76.3511
G1 X209.976 Y185.261 E76.36643
G1 X209.359 Y185.634 E76.40001
G1 X208.566 Y186.066 E76.44206
G1 X207.568 Y186.491 E76.49256
G1 X206.952 Y186.715 E76.52309
G1 X206.678 Y186.81 E76.53659
G1 X206.039 Y187.022 E76.56794
G1 X205.17 Y187.268 E76.60999
G1 X204.12 Y187.459 E76.65969
G1 X203.486 Y187.54 E76.68945
G1 X203.17 Y187.575 E76.70425
G1 X202.453 Y187.644 E76.73779
G1 X201.609 Y187.69 E76.77715
G1 X200.788 Y187.7 E76.81539
G1 X34.061 Y187.699 E84.57889
G1 X33.363 Y187.689 E84.6114
G1 X32.812 Y187.666 E84.63708
G1 X32.462 Y187.638 E84.65343
G1 X31.843 Y187.577 E84.68239
G1 X31.552 Y187.544 E84.69603
G1 X30.87 Y187.457 E84.72804
G1 X29.98 Y187.303 E84.7701
G1 X28.921 Y187.011 E84.82125
G1 X28.321 Y186.81 E84.85071
G1 X28.062 Y186.719 E84.8635
G1 X27.402 Y186.478 E84.89621
G1 X26.569 Y186.131 E84.93823
G1 X25.591 Y185.606 E84.98992
G1 X25.04 Y185.27 E85.01997
G1 X24.793 Y185.114 E85.03357
G1 X24.202 Y184.73 E85.06639
G1 X23.467 Y184.205 E85.10845
G1 X22.97 Y183.789 E85.13863
G1 X22.594 Y183.44 E85.16252
G1 X22.162 Y183.018 E85.19064
G1 X21.966 Y182.821 E85.20358
G1 X21.493 Y182.333 E85.23522
G1 X20.894 Y181.657 E85.27728
G1 X20.477 Y181.106 E85.30946
G1 X20.236 Y180.751 E85.32944
G1 X19.908 Y180.245 E85.35752
G1 X19.75 Y179.994 E85.37133
G1 X19.383 Y179.39 E85.40424
G1 X18.949 Y178.598 E85.44629
G1 X18.519 Y177.592 E85.49723
G1 X18.29 Y176.965 E85.52831
G1 X18.191 Y176.682 E85.54227
G1 X17.978 Y176.041 E85.57373
G1 X17.732 Y175.173 E85.61574
G1 X17.538 Y174.102 E85.66642
G1 X17.458 Y173.468 E85.69617
G1 X17.426 Y173.181 E85.70962
G1 X17.358 Y172.484 E85.74223
G1 X17.311 Y171.638 E85.78168
G1 X17.3 Y170.788 E85.82127
G1 X17.301 Y64.062 E90.79088
G1 X17.311 Y63.361 E90.82352
G1 X17.335 Y62.796 E90.84985
G1 X17.362 Y62.456 E90.86574
G1 X17.423 Y61.839 E90.89461
G1 X17.457 Y61.543 E90.90848
G1 X17.545 Y60.858 E90.94064
G1 X17.7 Y59.969 E90.98266
G1 X17.99 Y58.918 E91.03343
G1 X18.19 Y58.321 E91.06274
G1 X18.284 Y58.054 E91.07592
G1 X18.526 Y57.393 E91.1087
G1 X18.873 Y56.56 E91.15072
G1 X19.393 Y55.594 E91.2018
G1 X19.728 Y55.044 E91.23179
G1 X19.876 Y54.808 E91.24476
G1 X20.254 Y54.224 E91.27715
G1 X20.778 Y53.488 E91.31922
G1 X21.262 Y52.913 E91.35422
G1 X21.551 Y52.604 E91.37392
G1 X21.972 Y52.172 E91.40201
G1 X22.185 Y51.96 E91.416
G1 X22.675 Y51.486 E91.44775
G1 X23.351 Y50.887 E91.48981
G1 X23.814 Y50.535 E91.51689
G1 X24.24 Y50.242 E91.54096
G1 X24.745 Y49.914 E91.569
G1 X25.007 Y49.75 E91.5834
G1 X25.613 Y49.382 E91.61641
G1 X26.405 Y48.947 E91.65848
G1 F2700 E86.65848
;MESH:SataSATA_Storage_Small.stl
G0 F6000 X33.389 Y56.845
G0 X33.554 Y58.31
G0 X32.332 Y58.409
G0 X31.236 Y58.791
G0 X30.239 Y59.418
G0 X29.418 Y60.239
G0 X28.791 Y61.236
G0 X28.409 Y62.332
G0 X28.271 Y63.552
G0 X28.271 Y171.448
G0 X28.409 Y172.668
G0 X28.791 Y173.764
G0 X29.418 Y174.761
G0 X30.239 Y175.582
G0 X31.236 Y176.209
G0 X32.332 Y176.591
G0 X33.32 Y176.702
G0 X201.46 Y176.9
;TYPE:WALL-INNER
G1 F2700 E91.65848
G1 F1200 X33.54 Y176.9 E99.47754
G1 X32.295 Y176.76 E99.53588
G1 X31.159 Y176.362 E99.59193
G1 X30.135 Y175.719 E99.64823
G1 X29.281 Y174.865 E99.70447
G1 X28.638 Y173.841 E99.76077
